apps/16/pdf-viewer.svg

<?xml version="1.0" encoding="UTF-8"?>
<svg id="d" width="16" height="16" version="1.1" xmlns="http://www.w3.org/2000/svg" xmlns:cc="http://creativecommons.org/ns#" xmlns:dc="http://purl.org/dc/elements/1.1/" xmlns:rdf="http://www.w3.org/1999/02/22-rdf-syntax-ns#">
	<metadata id="a">
		<rdf:RDF>
			<cc:Work rdf:about="">
				<dc:format>image/svg+xml</dc:format>
				<dc:type rdf:resource="http://purl.org/dc/dcmitype/StillImage"/>
				<dc:title/>
			</cc:Work>
		</rdf:RDF>
	</metadata>
	<defs id="c">
		<style id="current-color-scheme" type="text/css">.ColorScheme-Text {color:#090d11;}.ColorScheme-Background{color:#ffffff;}</style>
	</defs>
	<path id="e" class="ColorScheme-Text" d="m8.3 7.8c-0.4114-0.3838-0.7907-0.8062-1.1283-1.2605-0.9002-1.2746-1.5621-2.7566-1.3276-4.1138-0.1173 0.1612-0.092 0.185-0.1039 0.1493 0.102-0.054 0.2936-0.02 0.5007 0.037 0.4738 0.084 0.8051 0.7879 0.7502 1.3557-0.2074 1.7495-0.4371 3.2822-0.7893 4.7564-0.2665 0.8971-0.5836 1.7731-0.9707 2.6175-0.4021 0.8599-0.8422 1.6839-1.4898 2.2485-0.4512 0.3886-1.0612 0.6316-1.561 0.4765l-0.1224 0.4848-0.1224 0.4848c0.9185 0.2031 1.8321-0.1145 2.4719-0.7003 0.8052-0.7328 1.3265-1.6669 1.7334-2.579 0.4068-0.8945 0.7399-1.8139 1.0187-2.7475 0.5264-1.4773 0.9282-3.0568 1.2778-4.8117 0.2239-1.1833-0.3037-2.5011-1.5593-3.1302-0.4346-0.2076-0.9712-0.2943-1.5515-0.1807-0.5487 0.096-1.0277 0.5177-1.2423 1.2277-0.3645 2.0272 0.3335 4.0445 1.4832 5.5909 0.4035 0.5659 0.8626 1.0883 1.3669 1.5587 1.092 1.0186 2.4076 1.8042 3.8502 2.2627 1.1158 0.4658 2.6457 0.3698 3.7313-0.7472 0.6977-0.9569 0.6602-2.1595 0.039-3.0374-0.6467-0.6584-1.3276-0.7759-1.7565-0.6542-0.7694 0.052-1.4635 0.2507-2.0776 0.4621-1.4983 0.5039-2.8577 1.1672-4.04 1.828-0.3006 0.1479-0.5986 0.2998-0.8941 0.4549-1.4033 0.7288-2.8425 1.5303-4.0421 2.6805-0.3315 0.2655-0.7246 0.6986-0.8369 1.3609-0.022 0.2887 0.076 0.5634 0.2794 0.7766 0.2558 0.2316 0.5246 0.3438 0.7481 0.3852l0.1224-0.4848 0.1224-0.4848c-0.1523-0.053-0.2664-0.077-0.2839-0.1208 0.01 0.016 0 0.01 0.01 0.018-0.036-0.1834 0.2563-0.4065 0.5356-0.7309 1.0643-1.0364 2.4265-1.7823 3.8114-2.514 0.289-0.1511 0.5796-0.2989 0.8718-0.4425 1.2101-0.5158 2.568-1.0217 3.9928-1.3653 0.5981-0.1401 1.1879-0.2667 1.7262-0.2503 0.333 0.1033 0.5509 0.034 0.3439 0.012 0.1736 0.2904 0.1589 0.8081-0.059 0.9771-0.1439 0.3943-0.9701 0.2118-1.7331 0.051-1.1482-0.4059-2.2044-1.0709-3.0937-1.9008z" style="fill-opacity:.75;fill:currentColor"/>
	<path id="b" class="ColorScheme-Background" d="m5.7812-0.40625c-0.19811 0.00524-0.42048 0.0243-0.625 0.0625h-0.03125c-1.0075 0.1884-1.8396 1.0149-2.1562 2.0625a1.2001 1.2001 0 0 0 -0.03125 0.125c-0.4329 2.4087 0.392 4.7475 1.6875 6.5 0.01 0.012 0.02325 0.01925 0.03125 0.03125 0.082 0.1138 0.19545 0.2019 0.28125 0.3125-0.034 0.1092-0.089 0.2043-0.125 0.3125-1.27 0.6719-2.593 1.416-3.7812 2.5312-0.029 0.028-0.06375 0.0355-0.09375 0.0625l0.03125 0.03125c-0.4573 0.3858-1.0528 1.0205-1.2188 2a1.2001 1.2001 0 0 0 0 0.09375c-0.047 0.6154 0.16785 1.2724 0.59375 1.7188a1.2001 1.2001 0 0 0 0.0625 0.0625c0.2135 0.1932 0.4589 0.2013 0.6875 0.3125 0.013 0.01 0.01925 0.02525 0.03125 0.03125a1.2001 1.2001 0 0 0 0.03125 0.03125 1.2001 1.2001 0 0 0 0.53125 0.28125h0.0625a1.2001 1.2001 0 0 0 0.5625 -0.03125c0.011 5e-4 0.02125-5e-4 0.03125 0 1.0838 0.042 2.1291-0.29455 2.875-0.96875 0.01-0.01 0.02525 0.01 0.03125 0 0.9771-0.8972 1.565-1.9938 2-2.9688 0.1225-0.2693 0.2026-0.5404 0.3125-0.8125 0.021-0.011 0.0415-0.02125 0.0625-0.03125s0.0415-0.02125 0.0625-0.03125c0.017-0.01 0.0445 0.01 0.0625 0 0.8131 0.5286 1.6614 0.97555 2.5938 1.2812h0.03125c0.022 0.01 0.0405 0.02425 0.0625 0.03125v-0.03125c1.5205 0.5983 3.541 0.43775 4.9688-1.0312a1.2001 1.2001 0 0 0 0.09375 -0.125c0.9903-1.3582 0.9711-3.1542 0.0625-4.4375a1.2001 1.2001 0 0 0 -0.125 -0.15625c-0.8168-0.8316-1.7997-1.1236-2.6875-0.96875v-0.03125c-0.06 0-0.09695 0.02625-0.15625 0.03125-0.03 0.01-0.06375-0.01-0.09375 0v0.03125c-0.7958 0.085-1.5388 0.26775-2.125 0.46875h-0.03125c-0.436 0.1473-0.74785 0.36425-1.1562 0.53125-0.011-0.01-0.02125-0.02125-0.03125-0.03125a1.2001 1.2001 0 0 0 -0.09375 -0.09375c-0.021-0.02-0.0425-0.0425-0.0625-0.0625 0.203-0.7863 0.4602-1.5168 0.625-2.3438a1.2001 1.2001 0 0 0 0.03125 0c0.3195-1.6881-0.48905-3.5708-2.2188-4.4375a1.2001 1.2001 0 0 0 -0.03125 0c-0.49132-0.23468-1.0307-0.35949-1.625-0.34375zm0 1.1875c0.41606-0.013833 0.7989 0.094225 1.125 0.25 1.2501 0.6264 1.7873 1.9373 1.5625 3.125-0.20789 1.0436-0.4505 2.0408-0.71875 3 0.18846 0.21041 0.38815 0.40195 0.59375 0.59375 0.17895 0.16697 0.37034 0.31574 0.5625 0.46875 0.58994-0.26291 1.1942-0.50028 1.8438-0.71875 0.6175-0.2126 1.321-0.41675 2.0938-0.46875 0.4305-0.1222 1.1031-0.00235 1.75 0.65625 0.6217 0.8786 0.66455 2.077-0.03125 3.0312-1.082 1.1133-2.6396 1.2135-3.75 0.75-1.0784-0.34275-2.0698-0.85918-2.9688-1.5312-0.22878 0.0921-0.46651 0.18705-0.6875 0.28125-0.15862 0.07795-0.31107 0.16971-0.46875 0.25-0.15687 0.41782-0.31424 0.84154-0.5 1.25-0.4069 0.9121-0.9448 1.8297-1.75 2.5625-0.6398 0.5858-1.5502 0.92185-2.4688 0.71875-0.2235-0.0414-0.4942-0.17465-0.75-0.40625-0.2034-0.2132-0.30325-0.49255-0.28125-0.78125 0.1123-0.6623 0.51225-1.0782 0.84375-1.3438 1.1996-1.1502 2.628-1.9587 4.0312-2.6875 0.028275-0.01484 0.065429-0.01647 0.09375-0.03125 0.12531-0.35448 0.2362-0.70046 0.34375-1.0625 0.014026-0.05871 0.017551-0.1282 0.03125-0.1875-0.23915-0.27023-0.47733-0.54897-0.6875-0.84375-1.1417-1.5355-1.8306-3.5806-1.4688-5.5938 0.2145-0.7098 0.7011-1.1228 1.25-1.2188 0.14508-0.0284 0.26756-0.057889 0.40625-0.0625zm0.21875 1.7188c-0.050148-0.005075-0.085471 0.025394-0.125 0.03125-0.12906 1.0677 0.28607 2.204 0.90625 3.25 0.090555-0.60909 0.17407-1.2346 0.25-1.875 0.0555-0.5744-0.2791-1.2598-0.75-1.3438-0.10375-0.029-0.19479-0.05375-0.28125-0.0625zm6.875 6.125c-0.5419-0.0165-1.117 0.109-1.7188 0.25-0.3066 0.07394-0.60851 0.16328-0.90625 0.25 0.38058 0.20484 0.78137 0.38768 1.1875 0.53125 0.7583 0.1598 1.5748 0.332 1.7188-0.0625 0.20902-0.16206 0.24816-0.6405 0.09375-0.9375-0.07185 0.0069-0.2115 0.0195-0.375-0.03125zm-7.5625 2.5625c-1.0395 0.57644-2.0297 1.2073-2.8438 2-0.2793 0.3244-0.56725 0.53535-0.53125 0.71875 0.0175 0.0438 0.12895 0.04075 0.28125 0.09375 0.4998 0.1551 1.1113-0.08015 1.5625-0.46875 0.6476-0.5646 1.0979-1.3901 1.5-2.25 0.013755-0.03 0.017671-0.06367 0.03125-0.09375z" style="fill-opacity:.5;fill:currentColor"/>
</svg>

<?xml version="1.0" encoding="UTF-8" standalone="no"?>
<!-- Created with Inkscape (http://www.inkscape.org/) -->

<svg
   xmlns:dc="http://purl.org/dc/elements/1.1/"
   xmlns:cc="http://creativecommons.org/ns#"
   xmlns:rdf="http://www.w3.org/1999/02/22-rdf-syntax-ns#"
   xmlns:svg="http://www.w3.org/2000/svg"
   xmlns="http://www.w3.org/2000/svg"
   xmlns:sodipodi="http://sodipodi.sourceforge.net/DTD/sodipodi-0.dtd"
   xmlns:inkscape="http://www.inkscape.org/namespaces/inkscape"
   width="16"
   height="16"
   id="svg27665"
   version="1.1"
   inkscape:version="0.48.3.1 r9886"
   sodipodi:docname="adobe-reader.svg">
  <defs
     id="defs27667">
    <inkscape:path-effect
       effect="skeletal"
       id="path-effect3009"
       is_visible="true"
       pattern="m -3361.9171,2100.7186 c -0.5893,10e-5 -1.2098,0.25 -1.6875,0.5 l -0.8125,0 0,0.5 0,0.5 0.8125,0 c 0.4777,0.25 1.0983,0.5 1.6875,0.5 0.5893,0 1.2098,-0.25 1.6875,-0.5 l 0.8125,0 0,-0.5 0,-0.5 -0.8125,0 c -0.4777,-0.25 -1.0983,-0.4999 -1.6875,-0.5 z"
       copytype="single_stretched"
       prop_scale="1"
       scale_y_rel="false"
       spacing="0"
       normal_offset="0"
       tang_offset="0"
       prop_units="false"
       vertical_pattern="false"
       fuse_tolerance="0" />
    <inkscape:path-effect
       effect="skeletal"
       id="path-effect3005"
       is_visible="true"
       pattern="m -3361.9171,2100.7186 c -0.5893,10e-5 -1.2098,0.25 -1.6875,0.5 l -0.8125,0 0,0.5 0,0.5 0.8125,0 c 0.4777,0.25 1.0983,0.5 1.6875,0.5 0.5893,0 1.2098,-0.25 1.6875,-0.5 l 0.8125,0 0,-0.5 0,-0.5 -0.8125,0 c -0.4777,-0.25 -1.0983,-0.4999 -1.6875,-0.5 z"
       copytype="single_stretched"
       prop_scale="1"
       scale_y_rel="false"
       spacing="0"
       normal_offset="0"
       tang_offset="0"
       prop_units="false"
       vertical_pattern="false"
       fuse_tolerance="0" />
    <inkscape:path-effect
       fuse_tolerance="0"
       vertical_pattern="false"
       prop_units="false"
       tang_offset="0"
       normal_offset="0"
       spacing="0"
       scale_y_rel="false"
       prop_scale="1"
       copytype="single_stretched"
       pattern="m -3361.9171,2100.7186 c -0.5893,10e-5 -1.2098,0.25 -1.6875,0.5 l -0.8125,0 0,0.5 0,0.5 0.8125,0 c 0.4777,0.25 1.0983,0.5 1.6875,0.5 0.5893,0 1.2098,-0.25 1.6875,-0.5 l 0.8125,0 0,-0.5 0,-0.5 -0.8125,0 c -0.4777,-0.25 -1.0983,-0.4999 -1.6875,-0.5 z"
       is_visible="true"
       id="path-effect3001"
       effect="skeletal" />
    <inkscape:path-effect
       effect="skeletal"
       id="path-effect3037"
       is_visible="true"
       pattern="m -3343.4484,2101.2186 c -0.5892,10e-5 -1.2098,0.25 -1.6875,0.5 l -0.8125,0 0,0.5 0,0.5 0.8125,0 c 0.4777,0.25 1.0983,0.5 1.6875,0.5 0.5894,0 1.2099,-0.25 1.6875,-0.5 l 0.8125,0 0,-0.5 0,-0.5 -0.8125,0 c -0.4776,-0.25 -1.0982,-0.4999 -1.6875,-0.5 z"
       copytype="single_stretched"
       prop_scale="1"
       scale_y_rel="false"
       spacing="0"
       normal_offset="0"
       tang_offset="0"
       prop_units="false"
       vertical_pattern="false"
       fuse_tolerance="0" />
  </defs>
  <sodipodi:namedview
     id="base"
     pagecolor="#ffffff"
     bordercolor="#666666"
     borderopacity="1.0"
     inkscape:pageopacity="0.0"
     inkscape:pageshadow="2"
     inkscape:zoom="32"
     inkscape:cx="8.408671"
     inkscape:cy="7.4607665"
     inkscape:document-units="px"
     inkscape:current-layer="layer1"
     showgrid="true"
     inkscape:window-width="1920"
     inkscape:window-height="1033"
     inkscape:window-x="-10"
     inkscape:window-y="25"
     inkscape:window-maximized="1"
     inkscape:snap-bbox="true"
     inkscape:bbox-paths="true"
     inkscape:bbox-nodes="true"
     inkscape:snap-bbox-edge-midpoints="true"
     inkscape:snap-bbox-midpoints="true"
     inkscape:object-paths="true"
     inkscape:snap-intersection-paths="true"
     inkscape:object-nodes="true"
     inkscape:snap-smooth-nodes="true"
     inkscape:snap-midpoints="true"
     inkscape:snap-object-midpoints="true"
     inkscape:snap-center="true"
     inkscape:snap-global="false"
     showguides="false"
     inkscape:guide-bbox="true"
     fit-margin-top="0"
     fit-margin-left="0"
     fit-margin-right="0"
     fit-margin-bottom="0"
     inkscape:showpageshadow="false">
    <sodipodi:guide
       orientation="0,1"
       position="599.99999,299.99993"
       id="guide3572" />
    <sodipodi:guide
       orientation="1,0"
       position="294.41949,12.121716"
       id="guide3574" />
    <sodipodi:guide
       orientation="0,1"
       position="456.04389,599.99992"
       id="guide3576" />
    <sodipodi:guide
       orientation="0,1"
       position="-2.8882813e-06,-8.4406273e-05"
       id="guide3578" />
    <sodipodi:guide
       orientation="1,0"
       position="-2.8882813e-06,157.58366"
       id="guide3580" />
    <sodipodi:guide
       orientation="1,0"
       position="599.99999,121.21821"
       id="guide3582" />
    <sodipodi:guide
       orientation="0,1"
       position="599.99999,-714.34359"
       id="guide5928" />
    <sodipodi:guide
       orientation="0,1"
       position="599.99999,-414.34359"
       id="guide5930" />
    <sodipodi:guide
       orientation="0,1"
       position="599.99999,-1014.3435"
       id="guide5932" />
    <sodipodi:guide
       orientation="0,1"
       position="451.57029,524.99606"
       id="guide5294" />
    <sodipodi:guide
       orientation="0,1"
       position="451.57029,75.013516"
       id="guide5296" />
    <sodipodi:guide
       orientation="0,1"
       position="496.01499,-931.36409"
       id="guide5413" />
    <sodipodi:guide
       orientation="0,1"
       position="457.34859,-489.34389"
       id="guide5415" />
    <inkscape:grid
       type="xygrid"
       id="grid3070"
       empspacing="5"
       visible="true"
       enabled="true"
       snapvisiblegridlinesonly="true"
       originx="4.3243213e-05px"
       originy="-2.6947047e-05px" />
  </sodipodi:namedview>
  <metadata
     id="metadata27670">
    <rdf:RDF>
      <cc:Work
         rdf:about="">
        <dc:format>image/svg+xml</dc:format>
        <dc:type
           rdf:resource="http://purl.org/dc/dcmitype/StillImage" />
        <dc:title />
      </cc:Work>
    </rdf:RDF>
  </metadata>
  <g
     inkscape:label="Camada 1"
     inkscape:groupmode="layer"
     id="layer1"
     transform="translate(3364.4171,-2100.7186)">
    <path
       style="color:#000000;fill:#27303a;fill-opacity:0.753280819999999968;fill-rule:nonzero;stroke:none;stroke-width:1;marker:none;visibility:visible;display:inline;overflow:visible;enable-background:accumulate"
       d="m -3356.0814,2108.4674 c -0.4112,-0.3836 -0.7907,-0.8064 -1.1282,-1.2605 0,0 0,0 0,0 -0.8956,-1.2681 -1.5615,-2.7599 -1.3276,-4.1138 -0.1173,0.1612 -0.092,0.185 -0.1039,0.1493 0.1022,-0.054 0.2932,-0.021 0.5007,0.037 0.4709,0.084 0.8057,0.7813 0.7502,1.3557 -0.2026,1.7088 -0.4464,3.3211 -0.7893,4.7564 -0.2665,0.8971 -0.5836,1.7731 -0.9707,2.6175 0,0 0,0 0,0 -0.4021,0.8599 -0.8422,1.6839 -1.4898,2.2485 0,0 0,0 0,0 -0.4512,0.3886 -1.0612,0.6316 -1.561,0.4765 l -0.1224,0.4848 -0.1224,0.4848 c 0.9185,0.2031 1.8321,-0.1145 2.4719,-0.7003 0,0 0,0 0,0 0.8052,-0.7328 1.3265,-1.6669 1.7334,-2.579 0,0 0,0 0,0 0.4068,-0.8945 0.7399,-1.8139 1.0187,-2.7475 0.5156,-1.4471 0.9347,-3.0894 1.2778,-4.8117 0.2248,-1.1877 -0.3092,-2.5038 -1.5593,-3.1302 -0.4348,-0.2077 -0.9712,-0.2943 -1.5515,-0.1807 -0.5489,0.096 -1.0278,0.5179 -1.2423,1.2277 -0.3619,2.0132 0.3415,4.0554 1.4832,5.5909 0,0 0,0 0,0 0.4032,0.5655 0.8629,1.0886 1.3669,1.5587 1.0884,1.0154 2.4124,1.8057 3.8502,2.2627 1.1104,0.4635 2.6493,0.3661 3.7313,-0.7472 0.6958,-0.9543 0.6607,-2.1588 0.039,-3.0374 -0.6469,-0.6586 -1.326,-0.7764 -1.7565,-0.6542 -0.7727,0.052 -1.4601,0.2495 -2.0776,0.4621 -1.5059,0.5065 -2.85,1.1629 -4.04,1.828 -0.3006,0.1479 -0.5986,0.2998 -0.8941,0.4549 0,0 0,0 0,0 -1.4033,0.7288 -2.8425,1.5303 -4.0421,2.6805 -0.3315,0.2655 -0.7246,0.6986 -0.8369,1.3609 -0.022,0.2887 0.076,0.5634 0.2794,0.7766 0.2558,0.2316 0.5246,0.3438 0.7481,0.3852 l 0.1224,-0.4848 0.1224,-0.4848 c -0.1523,-0.053 -0.2664,-0.077 -0.2839,-0.1208 0.01,0.016 0,0.01 0.01,0.018 -0.036,-0.1834 0.2563,-0.4065 0.5356,-0.7309 1.0643,-1.0364 2.4265,-1.7823 3.8114,-2.514 0,0 0,0 0,0 0.289,-0.1511 0.5796,-0.2989 0.8718,-0.4425 1.219,-0.5196 2.5589,-1.0195 3.9928,-1.3653 0.6017,-0.141 1.1843,-0.2668 1.7262,-0.2503 0.327,0.1015 0.5579,0.034 0.3439,0.012 0.1749,0.2926 0.1582,0.8087 -0.059,0.9771 -0.144,0.3945 -0.9748,0.2108 -1.7331,0.051 -1.1462,-0.4052 -2.2056,-1.0721 -3.0938,-1.9008 z"
       id="path3003"
       inkscape:connector-curvature="0"
       inkscape:path-effect="#path-effect3005"
       inkscape:original-d="m -3362.3234,2115.2186 c 2.9607,0.7476 4.8286,-5.2637 5.6563,-10.4687 0.3853,-2.4226 -2.5479,-2.9544 -2.75,-1.8125 -0.5497,3.1059 2.2556,7.0525 6.1249,8.3437 2.7415,0.9148 3.6172,-1.1766 2.7813,-2.4062 -1.3402,-1.9716 -15.6594,5.3723 -11.8125,6.3437 z"
       sodipodi:nodetypes="ssssss" />
    <path
       style="font-size:medium;font-style:normal;font-variant:normal;font-weight:normal;font-stretch:normal;text-indent:0;text-align:start;text-decoration:none;line-height:normal;letter-spacing:normal;word-spacing:normal;text-transform:none;direction:ltr;block-progression:tb;writing-mode:lr-tb;text-anchor:start;baseline-shift:baseline;color:#000000;fill:#f1f3f5;fill-opacity:0.90288714000000003;fill-rule:nonzero;stroke:none;stroke-width:2;marker:none;visibility:visible;display:inline;overflow:visible;enable-background:accumulate;font-family:Sans;-inkscape-font-specification:Sans"
       d="M 5.78125 -0.40625 C 5.5831437 -0.40100469 5.360775 -0.38195 5.15625 -0.34375 L 5.125 -0.34375 C 4.1175 -0.15535 3.28535 0.67115 2.96875 1.71875 A 1.20012 1.20012 0 0 0 2.9375 1.84375 C 2.5046 4.25245 3.3295 6.59125 4.625 8.34375 C 4.635 8.35575 4.64825 8.363 4.65625 8.375 C 4.73825 8.4888 4.8517 8.5769 4.9375 8.6875 C 4.9035 8.7967 4.8485 8.8918 4.8125 9 C 3.5425 9.6719 2.21945 10.41595 1.03125 11.53125 C 1.00225 11.55925 0.9675 11.56675 0.9375 11.59375 L 0.96875 11.625 C 0.51145 12.0108 -0.084 12.6455 -0.25 13.625 A 1.20012 1.20012 0 0 0 -0.25 13.71875 C -0.297 14.33415 -0.08215 14.9912 0.34375 15.4375 A 1.20012 1.20012 0 0 0 0.40625 15.5 C 0.61975 15.6932 0.86515 15.7013 1.09375 15.8125 C 1.10675 15.8225 1.113 15.83775 1.125 15.84375 A 1.20012 1.20012 0 0 0 1.15625 15.875 A 1.20012 1.20012 0 0 0 1.6875 16.15625 L 1.75 16.15625 A 1.20012 1.20012 0 0 0 2.3125 16.125 C 2.3235 16.1255 2.33375 16.1245 2.34375 16.125 C 3.42755 16.167 4.47285 15.83045 5.21875 15.15625 C 5.22875 15.14625 5.244 15.16625 5.25 15.15625 C 6.2271 14.25905 6.815 13.1624 7.25 12.1875 C 7.3725 11.9182 7.4526 11.6471 7.5625 11.375 C 7.5835 11.364 7.604 11.35375 7.625 11.34375 C 7.646 11.33375 7.6665 11.3225 7.6875 11.3125 C 7.7045 11.3025 7.732 11.3225 7.75 11.3125 C 8.5631 11.8411 9.41135 12.28805 10.34375 12.59375 L 10.375 12.59375 C 10.397 12.60375 10.4155 12.618 10.4375 12.625 L 10.4375 12.59375 C 11.958 13.19205 13.97855 13.0315 15.40625 11.5625 A 1.20012 1.20012 0 0 0 15.5 11.4375 C 16.4903 10.0793 16.4711 8.2833 15.5625 7 A 1.20012 1.20012 0 0 0 15.4375 6.84375 C 14.6207 6.01215 13.6378 5.7201 12.75 5.875 L 12.75 5.84375 C 12.69 5.84375 12.65305 5.87 12.59375 5.875 C 12.56375 5.885 12.53 5.865 12.5 5.875 L 12.5 5.90625 C 11.7042 5.99125 10.9612 6.174 10.375 6.375 L 10.34375 6.375 C 9.90775 6.5223 9.5959 6.73925 9.1875 6.90625 C 9.1765 6.89625 9.16625 6.885 9.15625 6.875 A 1.20012 1.20012 0 0 0 9.0625 6.78125 C 9.0415 6.76125 9.02 6.73875 9 6.71875 C 9.203 5.93245 9.4602 5.202 9.625 4.375 A 1.20012 1.20012 0 0 0 9.65625 4.375 C 9.97575 2.6869 9.1672 0.8042 7.4375 -0.0625 A 1.20012 1.20012 0 0 0 7.40625 -0.0625 C 6.914925 -0.297175 6.3755688 -0.42198594 5.78125 -0.40625 z M 5.78125 0.78125 C 6.1973078 0.76741719 6.58015 0.875475 6.90625 1.03125 C 8.15635 1.65765 8.69355 2.96855 8.46875 4.15625 C 8.2608621 5.1998097 8.0182515 6.1970565 7.75 7.15625 C 7.9384625 7.3666625 8.13815 7.5582 8.34375 7.75 C 8.5227039 7.9169659 8.714087 8.0657374 8.90625 8.21875 C 9.4961947 7.9558406 10.100471 7.7184651 10.75 7.5 C 11.3675 7.2874 12.07105 7.08325 12.84375 7.03125 C 13.27425 6.90905 13.94685 7.0289 14.59375 7.6875 C 15.21545 8.5661 15.2583 9.76445 14.5625 10.71875 C 13.4805 11.83205 11.9229 11.93225 10.8125 11.46875 C 9.73415 11.126 8.7426906 10.609566 7.84375 9.9375 C 7.6149717 10.029602 7.3772416 10.124552 7.15625 10.21875 C 6.9976271 10.296704 6.8451798 10.388464 6.6875 10.46875 C 6.5306305 10.88657 6.3732568 11.310295 6.1875 11.71875 C 5.7806 12.63085 5.2427 13.54845 4.4375 14.28125 C 3.7977 14.86705 2.88725 15.2031 1.96875 15 C 1.74525 14.9586 1.47455 14.82535 1.21875 14.59375 C 1.01535 14.38055 0.9155 14.1012 0.9375 13.8125 C 1.0498 13.1502 1.44975 12.73425 1.78125 12.46875 C 2.98085 11.31855 4.4092 10.51005 5.8125 9.78125 C 5.8407749 9.7664093 5.8779293 9.7647814 5.90625 9.75 C 6.0315594 9.3955193 6.1424482 9.0495439 6.25 8.6875 C 6.2640263 8.6287891 6.2675514 8.5592977 6.28125 8.5 C 6.0420989 8.2297667 5.8039248 7.9510265 5.59375 7.65625 C 4.45205 6.12075 3.7631 4.0757 4.125 2.0625 C 4.3395 1.3527 4.8261 0.93975 5.375 0.84375 C 5.520075 0.81535 5.6425641 0.78586094 5.78125 0.78125 z M 6 2.5 C 5.9498517 2.494925 5.9145292 2.5253937 5.875 2.53125 C 5.7459366 3.5989441 6.1610734 4.735226 6.78125 5.78125 C 6.8718049 5.1721584 6.9553177 4.5466897 7.03125 3.90625 C 7.08675 3.33185 6.75215 2.6465 6.28125 2.5625 C 6.1775 2.5335 6.0864625 2.50875 6 2.5 z M 12.875 8.625 C 12.3331 8.6085 11.75795 8.734 11.15625 8.875 C 10.849648 8.9489403 10.547743 9.0382826 10.25 9.125 C 10.630582 9.329842 11.031369 9.5126761 11.4375 9.65625 C 12.1958 9.81605 13.01225 9.98825 13.15625 9.59375 C 13.365268 9.4316938 13.404407 8.953252 13.25 8.65625 C 13.17815 8.6631875 13.0385 8.67575 12.875 8.625 z M 5.3125 11.1875 C 4.2730457 11.763942 3.2827926 12.394797 2.46875 13.1875 C 2.18945 13.5119 1.9015 13.72285 1.9375 13.90625 C 1.955 13.95005 2.06645 13.947 2.21875 14 C 2.71855 14.1551 3.33005 13.91985 3.78125 13.53125 C 4.42885 12.96665 4.87915 12.14115 5.28125 11.28125 C 5.2950048 11.251246 5.2989211 11.217583 5.3125 11.1875 z "
       transform="translate(-3364.4171,2100.7186)"
       id="path2999" />
    <path
       style="color:#000000;fill:#27303a;fill-opacity:0.753280819999999968;fill-rule:nonzero;stroke:none;stroke-width:1;marker:none;visibility:visible;display:inline;overflow:visible;enable-background:accumulate"
       d="M -8.5 5.5 C -9.08925 5.50005 -9.7098125 5.7499875 -10.1875 6 L -11 6 L -11 6.5 L -11 7 L -10.1875 7 C -9.709825 7.2499625 -9.0892 7.49995 -8.5 7.5 C -7.91065 7.49995 -7.2901875 7.2499625 -6.8125 7 L -6 7 L -6 6.5 L -6 6 L -6.8125 6 C -7.2901875 5.7499875 -7.91075 5.50005 -8.5 5.5 z "
       transform="translate(-3364.4171,2100.7186)"
       id="rect3023" />
  </g>
</svg>
